X:171
T: Maid of Calligan
N: O'Farrell's Pocket Companion v.2 (Sky ed. p.87)
N: "Irish"
M: C
L: 1/8
Q: 120 % "slow"
K: G
B|e>f g/f/e/d/ B2 AG|d>edB gf e2|e>f g/f/e/d/ B2 AG|
GAGF E>F G2|G>A Bd G2 F>D|E>F G/F/E/D/ EF G2|
E/F/G/A/ B/c/d/B/ e>f g/f/e/d/|B>c dF FE E2 ||
